core/assets/icons/share.ios.svg

<svg width="24" height="24" viewBox="0 0 24 24" xmlns="http://www.w3.org/2000/svg"><g id="platform=IOS"><path id="Vector" fill-rule="evenodd" clip-rule="evenodd" d="M3.39209 8.6078C3.39209 8.07957 3.8203 7.65137 4.34852 7.65137H7.2178C7.74603 7.65137 8.17423 8.07957 8.17423 8.6078C8.17423 9.13602 7.74603 9.56422 7.2178 9.56422H5.30495L5.30496 18.6863H18.695L18.695 9.56422H16.7821C16.2539 9.56422 15.8257 9.13602 15.8257 8.6078C15.8257 8.07957 16.2539 7.65137 16.7821 7.65137H19.6514C20.1796 7.65137 20.6078 8.07957 20.6078 8.6078L20.6078 19.6427C20.6078 20.1709 20.1796 20.5991 19.6514 20.5991H4.34853C3.82031 20.5991 3.39211 20.1709 3.3921 19.6427L3.39209 8.6078Z"/><path id="Vector_2" fill-rule="evenodd" clip-rule="evenodd" d="M11.3236 0.280131C11.6971 -0.0933771 12.3027 -0.0933771 12.6762 0.280131L16.5019 4.10585C16.8754 4.47935 16.8754 5.08493 16.5019 5.45844C16.1284 5.83195 15.5228 5.83195 15.1493 5.45844L11.9999 2.30902L8.8505 5.45844C8.47699 5.83195 7.87141 5.83195 7.4979 5.45844C7.1244 5.08493 7.1244 4.47935 7.4979 4.10585L11.3236 0.280131Z"/><path id="Vector " fill-rule="evenodd" clip-rule="evenodd" d="M11.9999 0C12.5281 0 12.9563 0.428208 12.9563 0.956429V13.39C12.9563 13.9182 12.5281 14.3464 11.9999 14.3464C11.4717 14.3464 11.0435 13.9182 11.0435 13.39V0.956429C11.0435 0.428208 11.4717 0 11.9999 0Z"/></g></svg>

<svg xmlns="http://www.w3.org/2000/svg" width="24" height="24" fill="none"><g fill="#191C22" fill-rule="evenodd" clip-rule="evenodd"><path d="M3.392 8.608c0-.528.428-.957.957-.957h2.869a.956.956 0 1 1 0 1.913H5.305v9.122h13.39V9.564h-1.913a.956.956 0 0 1 0-1.913h2.87c.528 0 .956.429.956.957v11.035a.956.956 0 0 1-.957.956H4.35a.956.956 0 0 1-.957-.956V8.608ZM11.324.28a.956.956 0 0 1 1.352 0l3.826 3.826a.956.956 0 0 1-1.353 1.352L12 2.31 8.85 5.459a.956.956 0 0 1-1.352-1.353L11.324.28Z"/><path d="M12 0c.528 0 .956.428.956.956V13.39a.956.956 0 0 1-1.912 0V.956c0-.528.428-.956.956-.956Z"/></g></svg>
